assets/img/braze_icons/text-input.svg

<svg fill="none" height="24" viewBox="0 0 24 24" width="24" xmlns="http://www.w3.org/2000/svg"><g fill="#801ed7"><path clip-rule="evenodd" d="m16 4h-1.5c-.5523 0-1-.44772-1-1s.4477-1 1-1l2.4968.00001.0032-.00001.0032.00001h2.4968c.5523 0 1 .44772 1 1 0 .55229-.4477 1-1 1h-1.5v1.99999h.8385c.5272-.00002.982-.00003 1.3565.03057.3954.0323.7886.10362 1.167.29641.5645.28762 1.0234.74656 1.311 1.31105.1928.37838.2641.7716.2964 1.16694.0306.37458.0306.82934.0306 1.35653v3.677c0 .5272 0 .982-.0306 1.3565-.0323.3954-.1036.7886-.2964 1.167-.2876.5645-.7465 1.0234-1.311 1.311-.3784.1928-.7716.2641-1.167.2964-.3745.0306-.8292.0306-1.3563.0306h-.8387v2h1.5c.5523 0 1 .4477 1 1s-.4477 1-1 1h-5c-.5523 0-1-.4477-1-1s.4477-1 1-1h1.5z" fill-rule="evenodd"/><path d="m5.16146 6h7.83854c.5523 0 1 .44772 1 1v10c0 .5523-.4477 1-1 1h-7.83852c-.52707 0-.98198 0-1.3565-.0306-.39535-.0323-.78857-.1036-1.16695-.2964-.56448-.2876-1.02343-.7465-1.31105-1.311-.19279-.3784-.26411-.7716-.29641-1.167-.030599-.3745-.030585-.8293-.03057-1.3564v-3.6771c-.000015-.52716-.000029-.98197.03057-1.35653.0323-.39534.10362-.78856.29641-1.16694.28762-.56449.74657-1.02343 1.31105-1.31105.37838-.19279.7716-.26411 1.16695-.29641.37455-.0306.82936-.03059 1.35648-.03057z"/></g></svg>

<svg width="24" height="24" viewBox="0 0 24 24" fill="none" xmlns="http://www.w3.org/2000/svg">
<path fill-rule="evenodd" clip-rule="evenodd" d="M16 4L14.5 4C13.9477 4 13.5 3.55228 13.5 3C13.5 2.44772 13.9477 2 14.5 2L16.9968 2.00001L17 2L17.0032 2.00001L19.5 2.00001C20.0523 2.00001 20.5 2.44773 20.5 3.00001C20.5 3.5523 20.0523 4.00001 19.5 4.00001L18 4.00001V6L18.8385 6C19.3657 5.99998 19.8205 5.99997 20.195 6.03057C20.5904 6.06287 20.9836 6.13419 21.362 6.32698C21.9265 6.6146 22.3854 7.07354 22.673 7.63803C22.8658 8.01641 22.9371 8.40963 22.9694 8.80497C23 9.17955 23 9.63431 23 10.1615V13.8385C23 14.3657 23 14.8205 22.9694 15.195C22.9371 15.5904 22.8658 15.9836 22.673 16.362C22.3854 16.9265 21.9265 17.3854 21.362 17.673C20.9836 17.8658 20.5904 17.9371 20.195 17.9694C19.8205 18 19.3658 18 18.8387 18H18V20L19.5 20C20.0523 20 20.5 20.4477 20.5 21C20.5 21.5523 20.0523 22 19.5 22L14.5 22C13.9477 22 13.5 21.5523 13.5 21C13.5 20.4477 13.9477 20 14.5 20L16 20L16 4Z" fill="#801ED7"/>
<path d="M5.16146 6H13C13.5523 6 14 6.44772 14 7V17C14 17.5523 13.5523 18 13 18H5.16148C4.63441 18 4.1795 18 3.80498 17.9694C3.40963 17.9371 3.01641 17.8658 2.63803 17.673C2.07355 17.3854 1.6146 16.9265 1.32698 16.362C1.13419 15.9836 1.06287 15.5904 1.03057 15.195C0.999971 14.8205 0.999985 14.3657 1 13.8386V10.1615C0.999985 9.63434 0.999971 9.17953 1.03057 8.80497C1.06287 8.40963 1.13419 8.01641 1.32698 7.63803C1.6146 7.07354 2.07355 6.6146 2.63803 6.32698C3.01641 6.13419 3.40963 6.06287 3.80498 6.03057C4.17953 5.99997 4.63434 5.99998 5.16146 6Z" fill="#801ED7"/>
</svg>
